X:0130
T:Green Sleeves.
N:Aird prints the last note of each part as a quaver and
N:the second-to-last in part 2 as an undotted crotchet.
M:6/8
L:1/8
Q:3/8=108
I: :: ::
Z:Jack Campin * www.campin.me.uk * 2009
K:A Minor
A/B/|c2c cde |dBG G2B|c2A ABA |G2E E2
B   |c2c cde |dBG G2B|cBA BA^G|A3  A2:|
f/e/|g2g g^fe|dBG G2g|a2a aba |g2e e2
f   |gag g^fe|dBG GAB|cBA BA^G|A3  A2:|
<end>
<start>
